X: 24988
T: Maid Of Templemore, The
R: hornpipe
M: 4/4
K: Dmajor
|:(3ABc|dcde .f2 AB|~=c3 d ecAF|G2 FA dfec|d2 dc d2:|
de|.f2 dc defg|~a3 f g2 ag|fdec dcAG|A2 AG A2 de|
~f3 e defg|agfa g2 ag|fdec dcAG|(3.A.B.A AB =c2 (3AB^c|
dcde .f2 AB|~=c3 d ecAF|G2 FA dfec|d2 dc d2||

